src/actions/16/kdenlive-slip.svg

<svg version="1.1" viewBox="0 0 16 16" xmlns="http://www.w3.org/2000/svg">
    <defs>
        <style id="current-color-scheme" type="text/css">.ColorScheme-Text {
        color:#363636;
      }</style>
    </defs>
    <path style="fill:currentColor;fill-opacity:1;stroke:none" class="ColorScheme-Text" d="m2 2v12h2v-1h-1v-5-5h1v-1h-2zm1 6 3 3v-2h1v-2h-1v-2l-3 3zm9-6v1h1v5 5h-1v1h2v-12h-2zm1 6-3-3v2h-1v2h1v2l3-3z"/>
</svg>

<svg xmlns="http://www.w3.org/2000/svg" viewBox="0 0 16 16">
    <path d="M2 2v12h2v-1H3V3h1V2H2zm1 6 3 3V9h1V7H6V5L3 8zm9-6v1h1v10h-1v1h2V2h-2zm1 6-3-3v2H9v2h1v2l3-3z" style="fill:currentColor;fill-opacity:1;stroke:none;color:#050505;opacity:.7"/>
</svg>
